assets/svg/umbrella-circle.svg

<?xml version="1.0" encoding="UTF-8"?>
<svg width="1000px" height="1000px" viewBox="0 0 1000 1000" version="1.1" xmlns="http://www.w3.org/2000/svg" xmlns:xlink="http://www.w3.org/1999/xlink">
    <!-- Generator: sketchtool 52.4 (67378) - http://www.bohemiancoding.com/sketch -->
    <title>umbrella-circle</title>
    <desc>Created with sketchtool.</desc>
    <g id="新版图标" stroke="none" stroke-width="1" fill="none" fill-rule="evenodd">
        <g id="umbrella-circle" fill="#323233">
            <g id="直角-担保交易">
                <path d="M500,944.444444 C254.540111,944.444444 55.5555556,745.459889 55.5555556,500 C55.5555556,254.540111 254.540111,55.5555556 500,55.5555556 C745.459889,55.5555556 944.444444,254.540111 944.444444,500 C944.444444,745.459889 745.459889,944.444444 500,944.444444 Z M472.222222,279.149312 C331.852147,293.086102 222.222222,411.518108 222.222222,555.555556 L777.777778,555.555556 C777.777778,411.518108 668.147853,293.086102 527.777778,279.149312 L527.777778,222.222222 L472.222222,222.222222 L472.222222,279.149312 Z M472.222222,611.111111 L472.222222,708.333333 C472.222222,731.345198 453.56742,750 430.555556,750 C407.543691,750 388.888889,731.345198 388.888889,708.333333 L388.888889,687.060929 L333.333333,687.060929 L333.333333,708.333333 C333.333333,762.027684 376.861205,805.555556 430.555556,805.555556 C484.249906,805.555556 527.777778,762.027684 527.777778,708.333333 L527.777778,611.111111 L472.222222,611.111111 Z" id="Combined-Shape"></path>
            </g>
        </g>
    </g>
</svg>

<svg width="1000" height="1000" xmlns="http://www.w3.org/2000/svg"><path d="M500 944.444C254.54 944.444 55.556 745.46 55.556 500S254.54 55.556 500 55.556 944.444 254.54 944.444 500 745.46 944.444 500 944.444zM472.222 279.15c-140.37 13.937-250 132.37-250 276.407h555.556c0-144.038-109.63-262.47-250-276.407v-56.927h-55.556v56.927zm0 331.962v97.222c0 23.012-18.655 41.667-41.666 41.667-23.012 0-41.667-18.655-41.667-41.667v-21.272h-55.556v21.272c0 53.695 43.528 97.223 97.223 97.223 53.694 0 97.222-43.528 97.222-97.223v-97.222h-55.556z" fill="#323233" fill-rule="evenodd"/></svg>
